src/assets/icon/action/lock.svg

<svg xmlns="http://www.w3.org/2000/svg" width="24" height="24" fill="currentColor" viewBox="0 0 24 24">
  <path d="M12 2C9.243 2 7 4.243 7 7v3H6c-1.103 0-2 .897-2 2v8c0 1.103.897 2 2 2h12c1.103 0 2-.897 2-2v-8c0-1.103-.897-2-2-2h-1V7c0-2.757-2.243-5-5-5zm6 10l.002 8H6v-8h12zm-9-2V7c0-1.654 1.346-3 3-3s3 1.346 3 3v3H9z"/>
</svg>

<svg width="24" height="24" viewBox="0 0 24 24" fill="currentColor" xmlns="http://www.w3.org/2000/svg">
  <path d="M12 2C9.243 2 7 4.243 7 7V10H6C4.897 10 4 10.897 4 12V20C4 21.103 4.897 22 6 22H18C19.103 22 20 21.103 20 20V12C20 10.897 19.103 10 18 10H17V7C17 4.243 14.757 2 12 2ZM18 12L18.002 20H6V12H18ZM9 10V7C9 5.346 10.346 4 12 4C13.654 4 15 5.346 15 7V10H9Z"/>
</svg>
